!!!OTL-incipit: EIN KAEFER AUF DEM ZAUNE SASS
!!!ARE: Europa, Mitteleuropa, Deutschland, Mecklenburg
!!!SCT: Z0116
!!!YEM: Copyright 1995, estate of Helmut Schaffrath.
**kern	**text
*ICvox	*
*M3/4	*
*k[f#]	*
*G:	*
!LO:TX:a:t=Mecklenburgiſch.	!
{8d	Ein
=1	=1
8.g	Kä-
16f#	-fer
8.gL	auf
16aJ	.
8.bL	dem
16gJ	.
=2	=2
8.f#	Ʒau-
16e	-ne
2d	ſaß,
=3	=3
4f#	brum
4.g}	brum!
{8d	ein
=4	=4
8.a	Kä-
16g#	-fer
4a	auf
4a	dem
=5	=5
8.dd	Ʒaune
16dd	.
4.dd}	ſaß,
{8g	die
=6	=6
8.f#	Flie-
16g	-ge
4a	die
4d	dar-
=7	=7
8.cc	-ne-
16b	-ben
2a	ſaß,
=8	=8
4f#	ſum
4g	ſum!
8r}	.
==	==
!!!AGN: Erzaehlung, lustige Romanze
!!!ONB: ESAC (Essen Associative Code) Database: ZUCCAL
!!!AMT: simple triple
!!!AIN: vox
!!!EED: Helmut Schaffrath
!!!EEV: 1.0
!!!GTL: II. Erzahlungen, lustige Romanzen, Kinder-Lieder und episch-lyrische Volks-Lieder.
!!!URL-scan: https://www.digitale-sammlungen.de/de/view/bsb11160571?page=222
!!!ENC: Anna Maria Matuszewska
!!!EEV: 2025/01/27
*-	*-
